!! 00000] TT[00
!! NN
!!!OTL: Shange yuejin ge yueduo
!!!ARE: Guangxi, Xiangzhou
!! Ethnic Group: Zhuang (Text: putonghua)
!! II, 492 (2)
!!!SCT: C0272
!!!YEM: Copyright 1995, estate of Helmut Schaffrath.
**kern
*ICvox
*Ivox
*M3/4
*k[b-e-]
*B-:
{2.ccc
=1
2.gg}
=2
{4bb-
4ccc
8bb-
8ccc
=3
4gg
4.ff
8gg
=4
4bb-
4ccc
8gg
8bb-
=5
4ccc
[2gg
=6
2gg]
4bb-}
=7
{4ccc
4ccc
8gg
8bb-
=8
4gg
2ff
=9
4ccc
4bb-
4gg
=10
[2.ff
=11
2ff]
4r}
=12
{4bb-
4ccc
8bb-
8ccc
=13
4gg
4ff
4ff
=14
4ccc
4gg
8gg
8bb-
=15
4ccc
[2gg
=16
2gg]
4ccc}
=17
{4bb-
4ccc
8gg
8bb-
=18
4gg
2ff
=19
4ccc
2ff
=20
[2.ff
=21
2.ff]}
==
!!!AGN: Shange
!! Einige Verzierungen.
!!!ONB: ESAC (Essen Associative Code) Database: CHINA
!!!AMT: simple triple
!!!AIN: vox
!!!EED: Helmut Schaffrath
!!!EEV: 1.0
*-
!!!ONB: Tied note syntax fixed by Craig Sapp, 2004/05/03/
